src/16/actions/escape-direction-horizontal.svg

<svg xmlns="http://www.w3.org/2000/svg" width="16" height="16" viewBox="0 0 16 16">
 <defs>
  <style id="current-color-scheme" type="text/css">
   .ColorScheme-Text { color:#565656; } .ColorScheme-Highlight { color:#5294e2; }
  </style>
 </defs>
 <path style="fill:currentColor" class="ColorScheme-Text" d="M 1 1.0039062 L 1 15.003906 L 15 15.003906 L 15 1.0039062 L 1 1.0039062 z M 3 3.0039062 L 13 3.0039062 L 13 7.0039062 L 9.7226562 7.0039062 C 9.5522563 6.7108063 9.3140625 6.4671188 9.0234375 6.2929688 C 9.0084375 6.2839687 8.9915625 6.2765781 8.9765625 6.2675781 C 8.8572375 6.2000781 8.7305563 6.1453656 8.5976562 6.1035156 C 8.5594062 6.0915156 8.5217219 6.0800625 8.4824219 6.0703125 C 8.3269469 6.0313125 8.167475 6.0039062 8 6.0039062 C 7.832525 6.0039062 7.6730531 6.0313125 7.5175781 6.0703125 C 7.4785781 6.0800625 7.4406688 6.0915156 7.4023438 6.1035156 C 7.2694438 6.1455156 7.1427625 6.2003031 7.0234375 6.2675781 C 7.0076875 6.2765781 6.9915625 6.2839687 6.9765625 6.2929688 C 6.6859375 6.4671187 6.4477437 6.7108062 6.2773438 7.0039062 L 3 7.0039062 L 3 3.0039062 z M 3 9.0039062 L 6.2773438 9.0039062 C 6.4477437 9.2970062 6.6859375 9.5406937 6.9765625 9.7148438 C 6.9915625 9.7238437 7.0084375 9.7331875 7.0234375 9.7421875 C 7.1427625 9.8096875 7.2694438 9.8644 7.4023438 9.90625 C 7.4405937 9.91825 7.4782781 9.92775 7.5175781 9.9375 C 7.6730531 9.9765 7.832525 10.005859 8 10.005859 C 8.167475 10.005859 8.3269469 9.9765 8.4824219 9.9375 C 8.5214219 9.92775 8.5593312 9.91825 8.5976562 9.90625 C 8.7305562 9.86425 8.8572375 9.8094625 8.9765625 9.7421875 C 8.9923125 9.7331875 9.0084375 9.7238438 9.0234375 9.7148438 C 9.3140625 9.5406937 9.5522563 9.2970063 9.7226562 9.0039062 L 13 9.0039062 L 13 13.003906 L 3 13.003906 L 3 9.0039062 z"/>
</svg>

<svg xmlns="http://www.w3.org/2000/svg" width="16" height="16"><defs><style id="current-color-scheme" type="text/css"></style></defs><path d="M1 1.004v14h14v-14H1zm2 2h10v4H9.723a1.991 1.991 0 0 0-.7-.711l-.046-.025a1.97 1.97 0 0 0-.495-.198A1.97 1.97 0 0 0 8 6.004a1.97 1.97 0 0 0-.598.1c-.133.042-.26.096-.379.164l-.046.025c-.291.174-.53.418-.7.71H3v-4zm0 6h3.277c.17.293.409.537.7.71l.046.028a1.97 1.97 0 0 0 .495.195c.155.04.315.069.482.069.167 0 .327-.03.482-.069l.116-.03a1.993 1.993 0 0 0 1.125-.903H13v4H3v-4z" fill="currentColor" color="#565656"/></svg>
